X: 11022
Q: "Andante"
M: 2/4
L: 1/8
K: F
|:\
c2d2 | c>BAB | c2d2 | c>BA2 |\
c2cc | d2ef | e2Td>c | c4 :|\
|:\
fedc | fdcB | A<c GA/B/ | B2A2 |\
fedc | fdcB | A2TG>F | F4 |]


